Costumes/guitar.svg

<?xml version="1.0" encoding="UTF-8" standalone="no"?>
<svg
   version="1.1"
   width="73.51815"
   height="195.22493"
   viewBox="-1 -1 73.51815 195.22493"
   id="svg27"
   sodipodi:docname="guitar.svg"
   xmlns:inkscape="http://www.inkscape.org/namespaces/inkscape"
   xmlns:sodipodi="http://sodipodi.sourceforge.net/DTD/sodipodi-0.dtd"
   xmlns="http://www.w3.org/2000/svg"
   xmlns:svg="http://www.w3.org/2000/svg">
  <defs
     id="defs31" />
  <sodipodi:namedview
     id="namedview29"
     pagecolor="#ffffff"
     bordercolor="#000000"
     borderopacity="0.25"
     inkscape:showpageshadow="2"
     inkscape:pageopacity="0.0"
     inkscape:pagecheckerboard="0"
     inkscape:deskcolor="#d1d1d1" />
  <!-- Exported by Scratch - http://scratch.mit.edu/ -->
  <g
     id="ID0.581718884408474"
     transform="matrix(0.77378094,0,0,0.77378094,-1.5326874,-1.3095124)">
    <g
       id="ID0.0045067616738379">
      <path
         id="ID0.12766184424981475"
         fill="#301111"
         d="m 240.3,205.1 c 4.442,0 8.467,1.804 11.381,4.719 2.915,2.914 4.719,6.939 4.719,11.381 0,4.442 -1.804,8.467 -4.719,11.381 -2.914,2.915 -6.939,4.719 -11.381,4.719 -4.442,0 -8.467,-1.804 -11.381,-4.719 -2.915,-2.914 -4.719,-6.939 -4.719,-11.381 0,-4.442 1.804,-8.467 4.719,-11.381 2.914,-2.915 6.939,-4.719 11.381,-4.719 z"
         transform="translate(-192,-54)" />
      <g
         id="ID0.06410281592980027">
        <path
           id="ID0.42644284991547465"
           fill="#653614"
           d="m 281.2,243.3 c -3.3,-5.6 -4.2,-12.4 -2.5,-18.8 0.9,-3.3 1.4,-6.8 1.4,-10.4 0,-20.4 -15.3,-31.3 -33.2,-33.2 -2.2,-0.2 -4.4,-0.3 -6.7,-0.3 -2.2,0 -4.4,0.2 -6.6,0.5 -17.1,2.3 -31.9,12.6 -33.2,30 -0.3,4.6 0.1,9 1.2,13.2 1.7,6.4 0.9,13.2 -2.4,18.9 -4.3,7.3 -6.7,15.9 -6.5,25.1 0.6,24.8 22.6,38.4 47.5,38.4 25.6,0 47.5,-12.6 47.5,-39.5 0,-8.6 -2.3,-16.8 -6.5,-23.9 z m -41,-7.2 c -8.3,0 -15,-6.7 -15,-15 0,-5.9 3.4,-11 8.4,-13.5 2,-1 4.2,-1.5 6.6,-1.5 2.4,0 4.7,0.6 6.7,1.6 4.9,2.5 8.3,7.5 8.3,13.4 0,8.3 -6.7,15 -15,15 z"
           transform="translate(-192,-54)" />
        <path
           id="ID0.6404600786045194"
           fill="#653614"
           d="m 246.9,90.1 v 117.6 c -2,-1 -4.3,-1.6 -6.7,-1.6 -2.4,0 -4.6,0.5 -6.6,1.5 V 90.1 Z"
           transform="translate(-192,-54)" />
        <path
           id="ID0.7620675414800644"
           fill="#653614"
           d="m 245.3,91.1 h -10.2 c -2.2,0 -3.9,-1.8 -3.9,-3.9 V 58.3 c 0,-2.2 1.8,-3.9 3.9,-3.9 h 10.2 c 2.2,0 3.9,1.8 3.9,3.9 v 28.9 c 0,2.2 -1.7,3.9 -3.9,3.9 z"
           transform="translate(-192,-54)" />
        <g
           id="ID0.8802924728952348">
          <g
             id="ID0.18469695886597037">
            <path
               id="ID0.9678059695288539"
               fill="#653614"
               d="m 227.4,60.7 h 5.5 v 2.2 h -5.5 z"
               transform="translate(-192,-54)" />
            <path
               id="ID0.6279889051802456"
               fill="#653614"
               d="m 225,58.4 c 0.938,0 1.788,0.381 2.404,0.996 0.615,0.616 0.996,1.466 0.996,2.404 0,0.938 -0.381,1.788 -0.996,2.404 -0.616,0.615 -1.466,0.996 -2.404,0.996 -0.938,0 -1.788,-0.381 -2.404,-0.996 -0.615,-0.616 -0.996,-1.466 -0.996,-2.404 0,-0.938 0.381,-1.788 0.996,-2.404 0.616,-0.615 1.466,-0.996 2.404,-0.996 z"
               transform="translate(-192,-54)" />
            <path
               id="ID0.8561722757294774"
               fill="#653614"
               d="m 227.4,70.7 h 5.5 v 2.2 h -5.5 z"
               transform="translate(-192,-54)" />
            <path
               id="ID0.16034984774887562"
               fill="#653614"
               d="m 225,68.4 c 0.938,0 1.788,0.381 2.404,0.996 0.615,0.616 0.996,1.466 0.996,2.404 0,0.938 -0.381,1.788 -0.996,2.404 -0.616,0.615 -1.466,0.996 -2.404,0.996 -0.938,0 -1.788,-0.381 -2.404,-0.996 -0.615,-0.616 -0.996,-1.466 -0.996,-2.404 0,-0.938 0.381,-1.788 0.996,-2.404 0.616,-0.615 1.466,-0.996 2.404,-0.996 z"
               transform="translate(-192,-54)" />
            <path
               id="ID0.6420011096633971"
               fill="#653614"
               d="m 227.4,80.7 h 5.5 v 2.2 h -5.5 z"
               transform="translate(-192,-54)" />
            <path
               id="ID0.2916263211518526"
               fill="#653614"
               d="m 225,78.4 c 0.938,0 1.788,0.381 2.404,0.996 0.615,0.616 0.996,1.466 0.996,2.404 0,0.938 -0.381,1.788 -0.996,2.404 -0.616,0.615 -1.466,0.996 -2.404,0.996 -0.938,0 -1.788,-0.381 -2.404,-0.996 -0.615,-0.616 -0.996,-1.466 -0.996,-2.404 0,-0.938 0.381,-1.788 0.996,-2.404 0.616,-0.615 1.466,-0.996 2.404,-0.996 z"
               transform="translate(-192,-54)" />
          </g>
          <g
             id="ID0.6663109776563942">
            <path
               id="ID0.24921480426564813"
               fill="#653614"
               d="m 247.6,60.7 h 5.5 v 2.2 h -5.5 z"
               transform="translate(-192,-54)" />
            <path
               id="ID0.5299748657271266"
               fill="#653614"
               d="m 255.5,58.4 c 0.938,0 1.788,0.381 2.404,0.996 0.615,0.616 0.996,1.466 0.996,2.404 0,0.938 -0.381,1.788 -0.996,2.404 -0.616,0.615 -1.466,0.996 -2.404,0.996 -0.938,0 -1.788,-0.381 -2.404,-0.996 -0.615,-0.616 -0.996,-1.466 -0.996,-2.404 0,-0.938 0.381,-1.788 0.996,-2.404 0.616,-0.615 1.466,-0.996 2.404,-0.996 z"
               transform="translate(-192,-54)" />
            <path
               id="ID0.2137286546640098"
               fill="#653614"
               d="m 247.6,70.7 h 5.5 v 2.2 h -5.5 z"
               transform="translate(-192,-54)" />
            <path
               id="ID0.7727772290818393"
               fill="#653614"
               d="m 255.5,68.4 c 0.938,0 1.788,0.381 2.404,0.996 0.615,0.616 0.996,1.466 0.996,2.404 0,0.938 -0.381,1.788 -0.996,2.404 -0.616,0.615 -1.466,0.996 -2.404,0.996 -0.938,0 -1.788,-0.381 -2.404,-0.996 -0.615,-0.616 -0.996,-1.466 -0.996,-2.404 0,-0.938 0.381,-1.788 0.996,-2.404 0.616,-0.615 1.466,-0.996 2.404,-0.996 z"
               transform="translate(-192,-54)" />
            <path
               id="ID0.8931949702091515"
               fill="#653614"
               d="m 247.6,80.7 h 5.5 v 2.2 h -5.5 z"
               transform="translate(-192,-54)" />
            <path
               id="ID0.1352339582517743"
               fill="#653614"
               d="m 255.5,78.4 c 0.938,0 1.788,0.381 2.404,0.996 0.615,0.616 0.996,1.466 0.996,2.404 0,0.938 -0.381,1.788 -0.996,2.404 -0.616,0.615 -1.466,0.996 -2.404,0.996 -0.938,0 -1.788,-0.381 -2.404,-0.996 -0.615,-0.616 -0.996,-1.466 -0.996,-2.404 0,-0.938 0.381,-1.788 0.996,-2.404 0.616,-0.615 1.466,-0.996 2.404,-0.996 z"
               transform="translate(-192,-54)" />
          </g>
        </g>
        <path
           id="ID0.13206872530281544"
           fill="#ffffcc"
           d="m 238,263.4 c 0,0.9 -0.7,1.7 -1.7,1.7 -0.9,0 -1.7,-0.8 -1.7,-1.7 0,-0.7 0.5,-1.3 1.1,-1.6 V 90.1 h 1.1 v 171.7 c 0.7,0.2 1.2,0.8 1.2,1.6 z"
           transform="translate(-192,-54)" />
        <path
           id="ID0.9616539347916842"
           fill="#ffffcc"
           d="m 241.9,263.4 c 0,0.9 -0.7,1.7 -1.7,1.7 -0.9,0 -1.7,-0.8 -1.7,-1.7 0,-0.7 0.5,-1.3 1.1,-1.6 V 90.1 h 1.1 v 171.7 c 0.7,0.2 1.2,0.8 1.2,1.6 z"
           transform="translate(-192,-54)" />
        <path
           id="ID0.9672220363281667"
           fill="#ffffcc"
           d="m 245.8,263.4 c 0,0.9 -0.8,1.7 -1.7,1.7 -0.9,0 -1.7,-0.8 -1.7,-1.7 0,-0.7 0.5,-1.3 1.1,-1.6 V 90.1 h 1.1 v 171.7 c 0.8,0.2 1.2,0.8 1.2,1.6 z"
           transform="translate(-192,-54)" />
      </g>
    </g>
  </g>
</svg>

<svg version="1.1" width="97" height="254" viewBox="-1 -1 97 254" xmlns="http://www.w3.org/2000/svg" xmlns:xlink="http://www.w3.org/1999/xlink">
  <!-- Exported by Scratch - http://scratch.mit.edu/ -->
  <g id="ID0.581718884408474" transform="matrix(0.7737809419631958, 0, 0, 0.7737809419631958, -0.05, 0.55)">
    <g id="ID0.0045067616738379">
      <path id="ID0.12766184424981475" fill="#301111" d="M 240.300 205.100 C 244.742 205.100 248.767 206.904 251.681 209.819 C 254.596 212.733 256.400 216.758 256.400 221.200 C 256.400 225.642 254.596 229.667 251.681 232.581 C 248.767 235.496 244.742 237.300 240.300 237.300 C 235.858 237.300 231.833 235.496 228.919 232.581 C 226.004 229.667 224.200 225.642 224.200 221.200 C 224.200 216.758 226.004 212.733 228.919 209.819 C 231.833 206.904 235.858 205.100 240.300 205.100 Z " transform="matrix(1, 0, 0, 1, -192, -54)"/>
      <g id="ID0.06410281592980027">
        <path id="ID0.42644284991547465" fill="#653614" d="M 281.200 243.300 C 277.900 237.700 277 230.900 278.700 224.500 C 279.600 221.200 280.100 217.700 280.100 214.100 C 280.100 193.700 264.800 182.800 246.900 180.900 C 244.700 180.700 242.500 180.600 240.200 180.600 C 238 180.600 235.800 180.800 233.600 181.100 C 216.500 183.400 201.700 193.700 200.400 211.100 C 200.100 215.700 200.500 220.100 201.600 224.300 C 203.300 230.700 202.500 237.500 199.200 243.200 C 194.900 250.500 192.500 259.100 192.700 268.300 C 193.300 293.100 215.300 306.700 240.200 306.700 C 265.800 306.700 287.700 294.100 287.700 267.200 C 287.700 258.600 285.400 250.400 281.200 243.300 Z M 240.200 236.100 C 231.900 236.100 225.200 229.400 225.200 221.100 C 225.200 215.200 228.600 210.100 233.600 207.600 C 235.600 206.600 237.800 206.100 240.200 206.100 C 242.600 206.100 244.900 206.700 246.900 207.700 C 251.800 210.200 255.200 215.200 255.200 221.100 C 255.200 229.400 248.500 236.100 240.200 236.100 Z " transform="matrix(1, 0, 0, 1, -192, -54)"/>
        <path id="ID0.6404600786045194" fill="#653614" d="M 246.900 90.100 L 246.900 207.700 C 244.900 206.700 242.600 206.100 240.200 206.100 C 237.800 206.100 235.600 206.600 233.600 207.600 L 233.600 90.100 L 246.900 90.100 Z " transform="matrix(1, 0, 0, 1, -192, -54)"/>
        <path id="ID0.7620675414800644" fill="#653614" d="M 245.300 91.100 L 235.100 91.100 C 232.900 91.100 231.200 89.300 231.200 87.200 L 231.200 58.300 C 231.200 56.100 233 54.400 235.100 54.400 L 245.300 54.400 C 247.500 54.400 249.200 56.200 249.200 58.300 L 249.200 87.200 C 249.200 89.400 247.500 91.100 245.300 91.100 Z " transform="matrix(1, 0, 0, 1, -192, -54)"/>
        <g id="ID0.8802924728952348">
          <g id="ID0.18469695886597037">
            <path id="ID0.9678059695288539" fill="#653614" d="M 227.400 60.700 L 232.900 60.700 L 232.900 62.900 L 227.400 62.900 L 227.400 60.700 Z " transform="matrix(1, 0, 0, 1, -192, -54)"/>
            <path id="ID0.6279889051802456" fill="#653614" d="M 225 58.400 C 225.938 58.400 226.788 58.781 227.404 59.396 C 228.019 60.012 228.400 60.862 228.400 61.800 C 228.400 62.738 228.019 63.588 227.404 64.204 C 226.788 64.819 225.938 65.200 225 65.200 C 224.062 65.200 223.212 64.819 222.596 64.204 C 221.981 63.588 221.600 62.738 221.600 61.800 C 221.600 60.862 221.981 60.012 222.596 59.396 C 223.212 58.781 224.062 58.400 225 58.400 Z " transform="matrix(1, 0, 0, 1, -192, -54)"/>
            <path id="ID0.8561722757294774" fill="#653614" d="M 227.400 70.700 L 232.900 70.700 L 232.900 72.900 L 227.400 72.900 L 227.400 70.700 Z " transform="matrix(1, 0, 0, 1, -192, -54)"/>
            <path id="ID0.16034984774887562" fill="#653614" d="M 225 68.400 C 225.938 68.400 226.788 68.781 227.404 69.396 C 228.019 70.012 228.400 70.862 228.400 71.800 C 228.400 72.738 228.019 73.588 227.404 74.204 C 226.788 74.819 225.938 75.200 225 75.200 C 224.062 75.200 223.212 74.819 222.596 74.204 C 221.981 73.588 221.600 72.738 221.600 71.800 C 221.600 70.862 221.981 70.012 222.596 69.396 C 223.212 68.781 224.062 68.400 225 68.400 Z " transform="matrix(1, 0, 0, 1, -192, -54)"/>
            <path id="ID0.6420011096633971" fill="#653614" d="M 227.400 80.700 L 232.900 80.700 L 232.900 82.900 L 227.400 82.900 L 227.400 80.700 Z " transform="matrix(1, 0, 0, 1, -192, -54)"/>
            <path id="ID0.2916263211518526" fill="#653614" d="M 225 78.400 C 225.938 78.400 226.788 78.781 227.404 79.396 C 228.019 80.012 228.400 80.862 228.400 81.800 C 228.400 82.738 228.019 83.588 227.404 84.204 C 226.788 84.819 225.938 85.200 225 85.200 C 224.062 85.200 223.212 84.819 222.596 84.204 C 221.981 83.588 221.600 82.738 221.600 81.800 C 221.600 80.862 221.981 80.012 222.596 79.396 C 223.212 78.781 224.062 78.400 225 78.400 Z " transform="matrix(1, 0, 0, 1, -192, -54)"/>
          </g>
          <g id="ID0.6663109776563942">
            <path id="ID0.24921480426564813" fill="#653614" d="M 247.600 60.700 L 253.100 60.700 L 253.100 62.900 L 247.600 62.900 L 247.600 60.700 Z " transform="matrix(1, 0, 0, 1, -192, -54)"/>
            <path id="ID0.5299748657271266" fill="#653614" d="M 255.500 58.400 C 256.438 58.400 257.288 58.781 257.904 59.396 C 258.519 60.012 258.900 60.862 258.900 61.800 C 258.900 62.738 258.519 63.588 257.904 64.204 C 257.288 64.819 256.438 65.200 255.500 65.200 C 254.562 65.200 253.712 64.819 253.096 64.204 C 252.481 63.588 252.100 62.738 252.100 61.800 C 252.100 60.862 252.481 60.012 253.096 59.396 C 253.712 58.781 254.562 58.400 255.500 58.400 Z " transform="matrix(1, 0, 0, 1, -192, -54)"/>
            <path id="ID0.2137286546640098" fill="#653614" d="M 247.600 70.700 L 253.100 70.700 L 253.100 72.900 L 247.600 72.900 L 247.600 70.700 Z " transform="matrix(1, 0, 0, 1, -192, -54)"/>
            <path id="ID0.7727772290818393" fill="#653614" d="M 255.500 68.400 C 256.438 68.400 257.288 68.781 257.904 69.396 C 258.519 70.012 258.900 70.862 258.900 71.800 C 258.900 72.738 258.519 73.588 257.904 74.204 C 257.288 74.819 256.438 75.200 255.500 75.200 C 254.562 75.200 253.712 74.819 253.096 74.204 C 252.481 73.588 252.100 72.738 252.100 71.800 C 252.100 70.862 252.481 70.012 253.096 69.396 C 253.712 68.781 254.562 68.400 255.500 68.400 Z " transform="matrix(1, 0, 0, 1, -192, -54)"/>
            <path id="ID0.8931949702091515" fill="#653614" d="M 247.600 80.700 L 253.100 80.700 L 253.100 82.900 L 247.600 82.900 L 247.600 80.700 Z " transform="matrix(1, 0, 0, 1, -192, -54)"/>
            <path id="ID0.1352339582517743" fill="#653614" d="M 255.500 78.400 C 256.438 78.400 257.288 78.781 257.904 79.396 C 258.519 80.012 258.900 80.862 258.900 81.800 C 258.900 82.738 258.519 83.588 257.904 84.204 C 257.288 84.819 256.438 85.200 255.500 85.200 C 254.562 85.200 253.712 84.819 253.096 84.204 C 252.481 83.588 252.100 82.738 252.100 81.800 C 252.100 80.862 252.481 80.012 253.096 79.396 C 253.712 78.781 254.562 78.400 255.500 78.400 Z " transform="matrix(1, 0, 0, 1, -192, -54)"/>
          </g>
        </g>
        <path id="ID0.13206872530281544" fill="#FFFFCC" d="M 238 263.400 C 238 264.300 237.300 265.100 236.300 265.100 C 235.400 265.100 234.600 264.300 234.600 263.400 C 234.600 262.700 235.100 262.100 235.700 261.800 L 235.700 90.100 L 236.800 90.100 L 236.800 261.800 C 237.500 262 238 262.600 238 263.400 Z " transform="matrix(1, 0, 0, 1, -192, -54)"/>
        <path id="ID0.9616539347916842" fill="#FFFFCC" d="M 241.900 263.400 C 241.900 264.300 241.200 265.100 240.200 265.100 C 239.300 265.100 238.500 264.300 238.500 263.400 C 238.500 262.700 239 262.100 239.600 261.800 L 239.600 90.100 L 240.700 90.100 L 240.700 261.800 C 241.400 262 241.900 262.600 241.900 263.400 Z " transform="matrix(1, 0, 0, 1, -192, -54)"/>
        <path id="ID0.9672220363281667" fill="#FFFFCC" d="M 245.800 263.400 C 245.800 264.300 245 265.100 244.100 265.100 C 243.200 265.100 242.400 264.300 242.400 263.400 C 242.400 262.700 242.900 262.100 243.500 261.800 L 243.500 90.100 L 244.600 90.100 L 244.600 261.800 C 245.400 262 245.800 262.600 245.800 263.400 Z " transform="matrix(1, 0, 0, 1, -192, -54)"/>
      </g>
    </g>
  </g>
</svg>
